trunk/public/assets/images/icons/white/accept/decline-circle.svg

<svg width="16" height="16" xmlns="http://www.w3.org/2000/svg" viewBox="0 0 16 16" shape-rendering="geometricPrecision" fill="#fff"><defs><mask id="a"><rect width="100%" height="100%"/><path fill="#000" d="M14.67-1.414l-3.227 3.227-1.69-1.69-2.74 2.743L11.444 7.3l5.97-5.97z"/></mask></defs><path fill="#cb1800" d="M16 1.33L14.67 0l-3.227 3.228-1.69-1.69-1.327 1.33 3.02 3.018"/><path d="M8 1C4.132 1 1 4.135 1 8.003c.002 3.863 3.133 6.995 7 6.997 3.866-.002 7-3.134 7-6.997C15 4.135 11.866 1 8 1zm0 12.584c-3.084-.006-5.578-2.5-5.584-5.58C2.422 4.916 4.916 2.42 8 2.415c3.083.006 5.577 2.5 5.584 5.587-.007 3.08-2.5 5.575-5.585 5.58zm3.422-3.53L9.366 8l2.057-2.058-1.448-1.45L7.917 6.55 5.86 4.493 4.412 5.94 6.47 7.998l-2.06 2.058 1.45 1.45 2.06-2.058 2.055 2.057 1.447-1.45z" mask="url(#a)"/></svg>

<?xml version="1.0"?><!DOCTYPE svg PUBLIC "-//W3C//DTD SVG 1.1//EN" "http://www.w3.org/Graphics/SVG/1.1/DTD/svg11.dtd"><svg width="16px" height="16px" xmlns="http://www.w3.org/2000/svg" viewBox="0 0 16 16" shape-rendering="geometricPrecision" fill="#fff"><defs><mask id="accept-path"><rect fill="#fff" width="100%" height="100%"/><polygon points="14.671,-1.414 11.443,1.813 9.753,0.123 7.012,2.866 11.445,7.299 17.414,1.329 " fill="#000"/></mask></defs><polygon points="16,1.33 14.671,0 11.443,3.228 9.753,1.539 8.426,2.867 11.445,5.886 " fill="#cb1800"/><g mask="url(#accept-path)"><path d="M7.999,1C4.133,1,1,4.135,1,8.003C1.002,11.866,4.133,14.998,7.999,15C11.866,14.998,15,11.866,15,8.003 C15,4.135,11.866,1,7.999,1z M7.999,13.584c-3.083-0.006-5.577-2.5-5.583-5.581c0.006-3.086,2.5-5.581,5.583-5.587 c3.084,0.006,5.578,2.501,5.585,5.587C13.577,11.084,11.083,13.578,7.999,13.584z M11.422,10.054L9.366,7.999l2.057-2.057 l-1.448-1.45L7.917,6.55L5.86,4.493L4.412,5.941l2.057,2.056L4.41,10.055l1.451,1.45l2.058-2.058l2.056,2.057L11.422,10.054z"/></g></svg>
